!! 00046] TT[KA
!! NN
!!!OTL: Siji hua kai
!!!ARE: Asia, China,ÿShandong, Xiajin
!! Ethnic Group: Han
!! III, 335
!!!SCT: C0304
!!!YEM: Copyright 1995, estate of Helmut Schaffrath.
**kern
*ICvox
*Ivox
*M2/4
*k[f#c#]
*D:
{8a
8f#
8a
8dd
=1
8f#
16e
16f#
4d
=2
8dd
8cc#
16b
16cc#
16b
16f#
=3
2a}
=4
{8a
16a
16b
8dd
8ee
=5
8b
8a
8a
8f#
=6
8e
16d
16d
8e
8a
=7
16b
16a
16f#
16e
4d}
=8
{8a
8a
8a
16f#
16a
=9
16dd
16ee
16cc#
16b
4a
=10
16a
16b
16a
16f#
16e
16d
16e
16f#
=11
2a}
=12
{8.f#
16a
8f#
8a
=13
8dd
8dd
8dd
8f#
=14
16e
16f#
16e
16d
8e
8a
=15
16b
16a
16f#
16e
4d}
=16
{8.f#
16a
8f#
8a
=17
16dd
16ee
16cc#
16b
4a
=18
16f#
16r
16f#
16r
16e
16d
16e
16f#
=19
2a}
=20
{8e
16d
16d
8e
8a
=21
16a
16e
16f#
16e
4d}
==
!!!AGN: Xiaodiao, Siji huakai diao. Xin minge
!! Vor- und Zwischenspiele; Verzierungen: Glissando;
!!    Sonderzeichen: v.d. Sprache abgeleitetes Verlassen der Tonhoehe
!!    2 WEITERE TITEL AUS ANDERER PROVINZ VORHANDEN. !
!!    Pinyin-Text der ersten Strophe vorhanden! Zuordnung richtig? +++
!!!ONB: ESAC (Essen Associative Code) Database: CHINA
!!!AMT: simple duple
!!!AIN: vox
!!!EED: Helmut Schaffrath
!!!EEV: 1.0
*-
